;FLAVOR:Marlin
;TIME:969
;Filament used: 1.06578m
;Layer height: 0.15
;MINX:94.52
;MINY:94.514
;MINZ:0.3
;MAXX:125.48
;MAXY:125.48
;MAXZ:21.9
;Generated with Cura_SteamEngine 4.6.1
M140 S60
M105
M190 S60
M104 S200
M105
M109 S200
M82 ;absolute extrusion mode
G21 ;metric values
G90 ;absolute positioning
M82 ;set extruder to absolute mode
M107 ;start with the fan off
G28 X0 Y0 ;move X/Y to min endstops
G28 Z0 ;move Z to min endstops
G1 Z15.0 F9000 ;move the platform down 15mm
G92 E0 ;zero the extruded length
G1 F200 E3 ;extrude 3mm of feed stock
G92 E0 ;zero the extruded length again
G1 F9000
;Put printing message on LCD screen
M117 Printing...
G92 E0
G92 E0
G1 F1500 E-6.5
;LAYER_COUNT:145
;LAYER:0
M107
G0 F3600 X111.418 Y95.382 Z0.3
;TYPE:SKIRT
G1 F1500 E0
G1 F1800 X112.341 Y95.501 E0.04643
G1 X113.259 Y95.679 E0.09308
G1 X114.161 Y95.915 E0.1396
G1 X115.032 Y96.202 E0.18535
G1 X115.824 Y96.517 E0.22787
G1 X116.76 Y96.961 E0.27956
G1 X117.531 Y97.39 E0.32358
G1 X118.278 Y97.867 E0.3678
G1 X119.097 Y98.469 E0.41851
G1 X119.761 Y99.025 E0.46171
G1 X120.418 Y99.648 E0.50688
G1 X120.969 Y100.234 E0.54701
G1 X121.582 Y100.969 E0.59476
G1 X122.164 Y101.771 E0.6442
G1 X122.629 Y102.504 E0.68751
G1 X123.088 Y103.339 E0.73505
G1 X123.49 Y104.197 E0.78232
G1 X123.806 Y104.992 E0.825
G1 X124.102 Y105.903 E0.87279
G1 X124.339 Y106.831 E0.92057
G1 X124.504 Y107.701 E0.96475
G1 X124.617 Y108.588 E1.00936
G1 X124.678 Y109.569 E1.0584
G1 X124.68 Y110.416 E1.10065
G1 X124.615 Y111.437 E1.15169
G1 X124.512 Y112.258 E1.19298
G1 X124.333 Y113.206 E1.24111
G1 X124.094 Y114.127 E1.28858
G1 X123.811 Y114.994 E1.33408
G1 X123.502 Y115.779 E1.37617
G1 X123.059 Y116.72 E1.42806
G1 X122.638 Y117.482 E1.47149
G1 X122.158 Y118.239 E1.51621
G1 X121.593 Y119.016 E1.56414
G1 X120.988 Y119.744 E1.61136
G1 X120.367 Y120.401 E1.65647
G1 X119.706 Y121.021 E1.70168
G1 X118.942 Y121.651 E1.75108
G1 X118.205 Y122.181 E1.79637
G1 X117.442 Y122.662 E1.84137
G1 X116.621 Y123.11 E1.88803
G1 X115.745 Y123.517 E1.93622
G1 X114.953 Y123.827 E1.97866
G1 X114.064 Y124.113 E2.02525
G1 X113.113 Y124.353 E2.07418
G1 X112.258 Y124.512 E2.11757
G1 X111.337 Y124.626 E2.16387
G1 X110.421 Y124.681 E2.20965
G1 X109.455 Y124.677 E2.25784
G1 X108.582 Y124.618 E2.3015
G1 X107.659 Y124.499 E2.34793
G1 X106.741 Y124.321 E2.39458
G1 X105.839 Y124.085 E2.44109
G1 X104.968 Y123.798 E2.48685
G1 X104.176 Y123.483 E2.52937
G1 X103.24 Y123.039 E2.58105
G1 X102.456 Y122.603 E2.62581
G1 X101.72 Y122.131 E2.66943
G1 X100.921 Y121.545 E2.71887
G1 X100.245 Y120.98 E2.76282
G1 X99.582 Y120.352 E2.80838
G1 X99.031 Y119.766 E2.84851
G1 X98.418 Y119.031 E2.89626
G1 X97.836 Y118.229 E2.9457
G1 X97.358 Y117.474 E2.99028
G1 X96.91 Y116.658 E3.03672
G1 X96.51 Y115.803 E3.08381
G1 X96.193 Y115.003 E3.12674
G1 X95.891 Y114.075 E3.17543
G1 X95.659 Y113.164 E3.22233
G1 X95.496 Y112.299 E3.26625
G1 X95.381 Y111.4 E3.31146
G1 X95.322 Y110.426 E3.36015
G1 X95.32 Y109.583 E3.4022
G1 X95.385 Y108.563 E3.4532
G1 X95.488 Y107.742 E3.49448
G1 X95.673 Y106.77 E3.54384
G1 X95.907 Y105.868 E3.59033
G1 X96.191 Y104.999 E3.63594
G1 X96.498 Y104.221 E3.67767
G1 X96.95 Y103.262 E3.73056
G1 X97.364 Y102.514 E3.77321
G1 X97.842 Y101.761 E3.81771
G1 X98.412 Y100.979 E3.86599
G1 X99.013 Y100.254 E3.91297
G1 X99.635 Y99.597 E3.95811
G1 X100.294 Y98.979 E4.00318
G1 X101.058 Y98.349 E4.05259
G1 X101.795 Y97.819 E4.09788
G1 X102.558 Y97.338 E4.14287
G1 X103.379 Y96.89 E4.18954
G1 X104.255 Y96.483 E4.23773
G1 X105.047 Y96.173 E4.28016
G1 X105.936 Y95.887 E4.32675
G1 X106.887 Y95.647 E4.37568
G1 X107.742 Y95.488 E4.41907
G1 X108.663 Y95.374 E4.46537
G1 X109.579 Y95.319 E4.51115
G1 X110.545 Y95.323 E4.55935
G1 X111.418 Y95.382 E4.603
G0 F3600 X111.447 Y94.983
G1 F1800 X112.395 Y95.105 E4.65068
G1 X113.338 Y95.287 E4.6986
G1 X114.265 Y95.528 E4.74638
G1 X115.16 Y95.823 E4.7934
G1 X115.974 Y96.146 E4.83709
G1 X116.934 Y96.601 E4.89009
G1 X117.728 Y97.042 E4.93541
G1 X118.495 Y97.532 E4.98081
G1 X119.336 Y98.148 E5.03282
G1 X120.02 Y98.72 E5.07731
G1 X120.695 Y99.359 E5.12368
G1 X121.262 Y99.962 E5.16497
G1 X121.89 Y100.715 E5.21389
G1 X122.49 Y101.538 E5.2647
G1 X122.969 Y102.292 E5.30927
G1 X123.44 Y103.148 E5.35801
G1 X123.854 Y104.03 E5.40662
G1 X124.179 Y104.847 E5.45049
G1 X124.484 Y105.782 E5.49956
G1 X124.727 Y106.735 E5.54862
G1 X124.898 Y107.63 E5.59408
G1 X125.014 Y108.54 E5.63985
G1 X125.077 Y109.547 E5.69019
G1 X125.08 Y110.417 E5.73359
G1 X125.014 Y111.465 E5.78598
G1 X124.908 Y112.311 E5.82852
G1 X124.726 Y113.282 E5.87781
G1 X124.481 Y114.231 E5.9267
G1 X124.191 Y115.121 E5.9734
G1 X123.874 Y115.928 E6.01666
G1 X123.419 Y116.893 E6.06989
G1 X122.987 Y117.678 E6.11459
G1 X122.495 Y118.455 E6.16047
G1 X121.914 Y119.253 E6.20972
G1 X121.294 Y120.001 E6.25819
G1 X120.656 Y120.678 E6.3046
G1 X119.978 Y121.315 E6.35101
G1 X119.194 Y121.961 E6.40169
G1 X118.436 Y122.508 E6.44833
G1 X117.653 Y123.002 E6.49452
G1 X116.81 Y123.462 E6.54243
G1 X115.911 Y123.881 E6.59191
G1 X115.096 Y124.2 E6.63558
G1 X114.184 Y124.494 E6.68338
G1 X113.208 Y124.742 E6.73362
G1 X112.329 Y124.906 E6.77823
G1 X111.383 Y125.023 E6.82579
G1 X110.443 Y125.081 E6.87278
G1 X109.45 Y125.077 E6.92232
G1 X108.553 Y125.017 E6.96717
G1 X107.605 Y124.895 E7.01485
G1 X106.662 Y124.713 E7.06277
G1 X105.735 Y124.472 E7.11055
G1 X104.84 Y124.177 E7.15757
G1 X104.026 Y123.854 E7.20126
G1 X103.066 Y123.399 E7.25426
G1 X102.259 Y122.95 E7.30034
G1 X101.502 Y122.466 E7.34516
G1 X100.682 Y121.866 E7.39585
G1 X99.986 Y121.285 E7.44109
G1 X99.305 Y120.641 E7.48785
G1 X98.738 Y120.038 E7.52914
G1 X98.11 Y119.285 E7.57806
G1 X97.51 Y118.462 E7.62887
G1 X97.018 Y117.685 E7.67475
G1 X96.558 Y116.849 E7.72236
G1 X96.146 Y115.97 E7.77079
G1 X95.82 Y115.147 E7.81495
G1 X95.51 Y114.196 E7.86486
G1 X95.271 Y113.259 E7.9131
G1 X95.102 Y112.37 E7.95825
G1 X94.984 Y111.448 E8.00462
G1 X94.922 Y110.448 E8.05461
G1 X94.92 Y109.582 E8.09781
G1 X94.986 Y108.535 E8.15015
G1 X95.092 Y107.689 E8.19269
G1 X95.28 Y106.693 E8.24326
G1 X95.52 Y105.765 E8.29108
G1 X95.812 Y104.873 E8.3379
G1 X96.127 Y104.071 E8.38089
G1 X96.59 Y103.089 E8.43506
G1 X97.016 Y102.317 E8.47905
G1 X97.505 Y101.545 E8.52464
G1 X98.09 Y100.741 E8.57424
G1 X98.707 Y99.996 E8.6225
G1 X99.346 Y99.32 E8.66891
G1 X100.022 Y98.685 E8.71518
G1 X100.806 Y98.039 E8.76587
G1 X101.564 Y97.492 E8.8125
G1 X102.347 Y96.998 E8.85869
G1 X103.19 Y96.538 E8.9066
G1 X104.089 Y96.119 E8.95608
G1 X104.904 Y95.8 E8.99975
G1 X105.816 Y95.506 E9.04755
G1 X106.792 Y95.258 E9.09779
G1 X107.671 Y95.094 E9.14241
G1 X108.617 Y94.977 E9.18996
G1 X109.557 Y94.919 E9.23695
G1 X109.792 Y94.914 E9.24867
G1 X110.55 Y94.923 E9.28649
G1 X111.447 Y94.983 E9.33134
G0 F3600 X111.477 Y94.584
G1 F1800 X112.449 Y94.708 E9.38023
G1 X113.417 Y94.895 E9.42942
G1 X114.369 Y95.142 E9.47849
G1 X115.288 Y95.444 E9.52675
G1 X116.124 Y95.775 E9.57161
G1 X117.107 Y96.241 E9.62588
G1 X117.925 Y96.694 E9.67253
G1 X118.713 Y97.196 E9.71914
G1 X119.575 Y97.827 E9.77244
G1 X120.28 Y98.416 E9.81827
G1 X120.972 Y99.071 E9.86581
G1 X121.555 Y99.69 E9.90823
G1 X122.199 Y100.461 E9.95835
G1 X122.815 Y101.305 E10.01048
G1 X123.308 Y102.081 E10.05635
G1 X123.792 Y102.958 E10.10632
G1 X124.217 Y103.863 E10.1562
G1 X124.551 Y104.702 E10.20126
G1 X124.865 Y105.661 E10.2516
G1 X125.116 Y106.639 E10.30197
G1 X125.291 Y107.558 E10.34865
G1 X125.411 Y108.492 E10.39563
G1 X125.477 Y109.524 E10.44722
G1 X125.48 Y110.419 E10.49187
G1 X125.413 Y111.493 E10.54556
G1 X125.305 Y112.364 E10.58934
G1 X125.118 Y113.359 E10.63985
G1 X124.867 Y114.334 E10.69008
G1 X124.57 Y115.248 E10.73803
G1 X124.245 Y116.077 E10.78245
G1 X123.78 Y117.066 E10.83698
G1 X123.335 Y117.874 E10.883
G1 X122.831 Y118.671 E10.93004
G1 X122.236 Y119.491 E10.98059
G1 X121.6 Y120.259 E11.03034
G1 X120.945 Y120.955 E11.07802
G1 X120.249 Y121.608 E11.12563
G1 X119.446 Y122.271 E11.17758
G1 X118.667 Y122.834 E11.22554
G1 X117.864 Y123.342 E11.27294
G1 X116.999 Y123.815 E11.32213
G1 X116.077 Y124.244 E11.37286
G1 X115.24 Y124.574 E11.41775
G1 X114.304 Y124.876 E11.46682
G1 X113.304 Y125.13 E11.51829
G1 X112.399 Y125.3 E11.56423
G1 X111.43 Y125.421 E11.61295
G1 X110.464 Y125.48 E11.66123
G1 X109.446 Y125.477 E11.71202
G1 X108.523 Y125.416 E11.75817
G1 X107.551 Y125.292 E11.80706
G1 X106.583 Y125.105 E11.85624
G1 X105.631 Y124.858 E11.90531
G1 X104.712 Y124.556 E11.95357
G1 X103.876 Y124.225 E11.99843
G1 X102.893 Y123.759 E12.0527
G1 X102.062 Y123.298 E12.10012
G1 X101.284 Y122.802 E12.14615
G1 X100.443 Y122.187 E12.19813
G1 X99.728 Y121.591 E12.24457
G1 X99.028 Y120.929 E12.29263
G1 X98.445 Y120.31 E12.33506
G1 X97.801 Y119.539 E12.38517
G1 X97.185 Y118.695 E12.4373
G1 X96.678 Y117.896 E12.48451
G1 X96.207 Y117.039 E12.5333
G1 X95.783 Y116.137 E12.58303
G1 X95.447 Y115.292 E12.62839
G1 X95.129 Y114.318 E12.67951
G1 X94.883 Y113.355 E12.7291
G1 X94.709 Y112.442 E12.77547
G1 X94.587 Y111.496 E12.82306
G1 X94.523 Y110.469 E12.87439
G1 X94.52 Y109.58 E12.91874
G1 X94.587 Y108.507 E12.97238
G1 X94.695 Y107.636 E13.01617
G1 X94.888 Y106.616 E13.06796
G1 X95.134 Y105.662 E13.11711
G1 X95.432 Y104.746 E13.16517
G1 X95.756 Y103.922 E13.20934
G1 X96.229 Y102.916 E13.2648
G1 X96.668 Y102.121 E13.31011
G1 X97.169 Y101.329 E13.35687
G1 X97.769 Y100.503 E13.4078
G1 X98.401 Y99.739 E13.45727
G1 X99.058 Y99.043 E13.50502
G1 X99.751 Y98.392 E13.55245
G1 X100.554 Y97.729 E13.60441
G1 X101.333 Y97.166 E13.65236
G1 X102.136 Y96.658 E13.69976
G1 X103.001 Y96.185 E13.74895
G1 X103.923 Y95.756 E13.79968
G1 X104.76 Y95.426 E13.84457
G1 X105.696 Y95.124 E13.89364
G1 X106.696 Y94.87 E13.94511
G1 X107.601 Y94.7 E13.99105
G1 X108.57 Y94.579 E14.03977
G1 X109.536 Y94.52 E14.08806
G1 X109.796 Y94.514 E14.10103
G1 X110.554 Y94.523 E14.13885
G1 X111.477 Y94.584 E14.185
G1 F1500 E7.685
;MESH:NCKegOpener.stl
G0 F3600 X111.161 Y97.897
G0 X111.041 Y99.175
G0 X111.357 Y99.186
;TYPE:WALL-INNER
G1 F1500 E14.185
G1 F1800 X112.056 Y99.296 E14.2203
G1 X112.698 Y99.439 E14.25312
G1 X113.372 Y99.635 E14.28813
G1 X114.011 Y99.866 E14.32203
G1 X114.643 Y100.138 E14.35636
G1 X115.249 Y100.447 E14.3903
G1 X115.842 Y100.797 E14.42465
G1 X116.406 Y101.181 E14.45869
G1 X116.946 Y101.601 E14.49282
G1 X117.467 Y102.06 E14.52746
G1 X117.924 Y102.517 E14.55971
G1 X118.377 Y103.029 E14.59381
G1 X118.797 Y103.567 E14.62786
G1 X119.18 Y104.125 E14.66163
G1 X119.543 Y104.735 E14.69704
G1 X119.844 Y105.322 E14.72996
G1 X120.118 Y105.952 E14.76423
G1 X120.351 Y106.591 E14.79816
G1 X120.552 Y107.273 E14.83364
G1 X120.697 Y107.917 E14.86657
G1 X120.807 Y108.598 E14.90098
G1 X120.873 Y109.262 E14.93427
G1 X120.898 Y109.958 E14.96902
G1 X120.879 Y110.66 E15.00406
G1 X120.818 Y111.326 E15.03742
G1 X120.714 Y112.003 E15.07159
G1 X120.567 Y112.677 E15.10601
G1 X120.38 Y113.324 E15.13961
G1 X120.146 Y113.978 E15.17426
G1 X119.872 Y114.618 E15.209
G1 X119.578 Y115.203 E15.24166
G1 X119.226 Y115.802 E15.27632
G1 X118.83 Y116.389 E15.31165
G1 X118.428 Y116.911 E15.34452
G1 X117.972 Y117.431 E15.37903
G1 X117.483 Y117.923 E15.41363
G1 X116.953 Y118.393 E15.44897
G1 X116.398 Y118.824 E15.48403
G1 X115.842 Y119.203 E15.5176
G1 X115.249 Y119.553 E15.55196
G1 X114.643 Y119.862 E15.58589
G1 X114.011 Y120.134 E15.62022
G1 X113.371 Y120.365 E15.65417
G1 X112.711 Y120.558 E15.68847
G1 X112.044 Y120.706 E15.72256
G1 X111.357 Y120.814 E15.75725
G1 X110.693 Y120.877 E15.79053
G1 X110 Y120.9 E15.82512
G1 X109.307 Y120.877 E15.85972
G1 X108.643 Y120.814 E15.89299
G1 X107.956 Y120.706 E15.92769
G1 X107.289 Y120.558 E15.96177
G1 X106.629 Y120.365 E15.99608
G1 X105.989 Y120.134 E16.03003
G1 X105.357 Y119.862 E16.06435
G1 X104.751 Y119.553 E16.09829
G1 X104.158 Y119.203 E16.13264
G1 X103.594 Y118.819 E16.16668
G1 X103.054 Y118.399 E16.20081
G1 X102.533 Y117.94 E16.23546
G1 X102.076 Y117.483 E16.2677
G1 X101.623 Y116.971 E16.30181
G1 X101.203 Y116.433 E16.33586
G1 X100.818 Y115.871 E16.36984
G1 X100.457 Y115.265 E16.40504
G1 X100.152 Y114.669 E16.43844
G1 X99.883 Y114.051 E16.47206
G1 X99.645 Y113.397 E16.50679
G1 X99.448 Y112.727 E16.54163
G1 X99.302 Y112.077 E16.57486
G1 X99.193 Y111.403 E16.60893
G1 X99.127 Y110.727 E16.64281
G1 X99.102 Y110.039 E16.67716
G1 X99.121 Y109.331 E16.71249
G1 X99.182 Y108.674 E16.74541
G1 X99.286 Y107.997 E16.77959
G1 X99.435 Y107.316 E16.81436
G1 X99.621 Y106.672 E16.84781
G1 X99.856 Y106.016 E16.88257
G1 X100.128 Y105.382 E16.91699
G1 X100.422 Y104.797 E16.94965
G1 X100.774 Y104.198 E16.98432
G1 X101.173 Y103.607 E17.01989
G1 X101.572 Y103.089 E17.05251
G1 X102.028 Y102.569 E17.08702
G1 X102.509 Y102.085 E17.12106
G1 X103.063 Y101.594 E17.15799
G1 X103.593 Y101.181 E17.19151
G1 X104.158 Y100.797 E17.2256
G1 X104.751 Y100.447 E17.25995
G1 X105.357 Y100.138 E17.29389
G1 X105.989 Y99.866 E17.32821
G1 X106.628 Y99.635 E17.36211
G1 X107.302 Y99.439 E17.39713
G1 X107.944 Y99.296 E17.42995
G1 X108.643 Y99.186 E17.46525
G1 X109.307 Y99.123 E17.49852
G1 X110 Y99.1 E17.53312
G1 X110.693 Y99.123 E17.56771
G1 X111.357 Y99.186 E17.60099
G0 F3600 X111.345 Y99.285
G0 X110 Y120.8
G0 X110 Y121.3
;TYPE:WALL-OUTER
G1 F1800 X109.288 Y121.277 E17.63653
G1 X108.59 Y121.211 E17.67151
G1 X107.876 Y121.098 E17.70757
G1 X107.194 Y120.947 E17.74242
G1 X106.507 Y120.746 E17.77813
G1 X105.846 Y120.508 E17.81318
G1 X105.183 Y120.222 E17.8492
G1 X104.557 Y119.903 E17.88426
G1 X103.94 Y119.538 E17.92002
G1 X103.363 Y119.146 E17.95482
G1 X102.793 Y118.703 E17.99084
G1 X102.26 Y118.233 E18.02629
G1 X101.793 Y117.766 E18.05924
G1 X101.314 Y117.225 E18.09529
G1 X100.877 Y116.666 E18.13069
G1 X100.476 Y116.08 E18.16612
G1 X100.113 Y115.47 E18.20153
G1 X99.789 Y114.838 E18.23696
G1 X99.51 Y114.196 E18.27189
G1 X99.264 Y113.521 E18.30773
G1 X99.064 Y112.84 E18.34314
G1 X98.908 Y112.147 E18.37858
G1 X98.797 Y111.458 E18.4134
G1 X98.727 Y110.748 E18.44899
G1 X98.702 Y110.042 E18.48423
G1 X98.721 Y109.32 E18.52027
G1 X98.785 Y108.626 E18.55504
G1 X98.895 Y107.912 E18.59108
G1 X99.044 Y107.231 E18.62586
G1 X99.244 Y106.537 E18.66189
G1 X99.479 Y105.881 E18.69666
G1 X99.763 Y105.217 E18.73269
G1 X100.077 Y104.594 E18.76749
G1 X100.437 Y103.982 E18.80292
G1 X100.841 Y103.383 E18.83896
G1 X101.266 Y102.831 E18.87372
G1 X101.734 Y102.297 E18.90914
G1 X102.234 Y101.794 E18.94453
G1 X102.803 Y101.289 E18.98248
G1 X103.363 Y100.854 E19.01786
G1 X103.94 Y100.462 E19.05266
G1 X104.557 Y100.097 E19.08843
G1 X105.183 Y99.778 E19.12348
G1 X105.846 Y99.492 E19.1595
G1 X106.507 Y99.254 E19.19455
G1 X107.196 Y99.053 E19.23036
G1 X107.876 Y98.902 E19.26511
G1 X108.59 Y98.789 E19.30118
G1 X109.288 Y98.723 E19.33616
G1 X110 Y98.7 E19.3717
G1 X110.712 Y98.723 E19.40724
G1 X111.41 Y98.789 E19.44221
G1 X112.124 Y98.902 E19.47828
G1 X112.804 Y99.053 E19.51303
G1 X113.493 Y99.254 E19.54884
G1 X114.154 Y99.492 E19.58389
G1 X114.817 Y99.778 E19.61991
G1 X115.443 Y100.097 E19.65496
G1 X116.06 Y100.462 E19.69073
G1 X116.637 Y100.854 E19.72553
G1 X117.207 Y101.297 E19.76155
G1 X117.74 Y101.767 E19.797
G1 X118.207 Y102.234 E19.82995
G1 X118.686 Y102.775 E19.866
G1 X119.123 Y103.334 E19.9014
G1 X119.524 Y103.92 E19.93682
G1 X119.887 Y104.53 E19.97224
G1 X120.211 Y105.162 E20.00767
G1 X120.489 Y105.801 E20.04244
G1 X120.732 Y106.467 E20.07781
G1 X120.936 Y107.16 E20.11385
G1 X121.092 Y107.853 E20.14929
G1 X121.203 Y108.542 E20.1841
G1 X121.273 Y109.248 E20.2195
G1 X121.298 Y109.958 E20.25494
G1 X121.279 Y110.677 E20.29083
G1 X121.215 Y111.374 E20.32575
G1 X121.105 Y112.088 E20.36179
G1 X120.956 Y112.769 E20.39657
G1 X120.757 Y113.459 E20.43239
G1 X120.521 Y114.119 E20.46736
G1 X120.237 Y114.783 E20.50339
G1 X119.923 Y115.406 E20.5382
G1 X119.563 Y116.018 E20.57362
G1 X119.159 Y116.617 E20.60967
G1 X118.734 Y117.169 E20.64443
G1 X118.266 Y117.703 E20.67985
G1 X117.766 Y118.206 E20.71523
G1 X117.199 Y118.709 E20.75305
G1 X116.637 Y119.146 E20.78857
G1 X116.06 Y119.538 E20.82337
G1 X115.443 Y119.903 E20.85913
G1 X114.817 Y120.222 E20.89419
G1 X114.154 Y120.508 E20.93021
G1 X113.493 Y120.746 E20.96526
G1 X112.806 Y120.947 E21.00097
G1 X112.124 Y121.098 E21.03582
G1 X111.41 Y121.211 E21.07188
G1 X110.712 Y121.277 E21.10686
